common/src/main/resources/icons/plugins/rider/runConfigurations/launchSettings.svg

<svg xmlns="http://www.w3.org/2000/svg" width="16" height="16" fill="#FFC107" data-big="true" viewBox="0 0 24 24"><path d="m2.81 14.12 2.83-2.83 2.53-.5c3.22-4.38 9.38-6.57 11.61-6.57 0 2.23-2.19 8.39-6.57 11.61l-.5 2.53-2.83 2.83-.71-3.53c-1.41 0-1.41 0-2.12-.71s-.71-.71-.71-2.12zm2.83 2.83 1.41 1.41-2.66 2.67H2.97v-1.42zm-1.42-1.41 1.24.17L3 18.16v-1.42zm4.07 3 .17 1.24L7.26 21H5.84zM13 9.5a1.5 1.5 0 0 0-1.5 1.5 1.5 1.5 0 0 0 1.5 1.5 1.5 1.5 0 0 0 1.5-1.5A1.5 1.5 0 0 0 13 9.5"/></svg>

<!--
  - The MIT License (MIT)
  -
  - Copyright (c) 2015-2024 Elior "Mallowigi" Boukhobza
  -
  - Permission is hereby granted, free of charge, to any person obtaining a copy
  - of this software and associated documentation files (the "Software"), to deal
  - in the Software without restriction, including without limitation the rights
  - to use, copy, modify, merge, publish, distribute, sublicense, and/or sell
  - copies of the Software, and to permit persons to whom the Software is
  - furnished to do so, subject to the following conditions:
  -
  - The above copyright notice and this permission notice shall be included in all
  - copies or substantial portions of the Software.
  -
  - THE SOFTWARE IS PROVIDED "AS IS", WITHOUT WARRANTY OF ANY KIND, EXPRESS OR
  - IMPLIED, INCLUDING BUT NOT LIMITED TO THE WARRANTIES OF MERCHANTABILITY,
  - FITNESS FOR A PARTICULAR PURPOSE AND NONINFRINGEMENT. IN NO EVENT SHALL THE
  - AUTHORS OR COPYRIGHT HOLDERS BE LIABLE FOR ANY CLAIM, DAMAGES OR OTHER
  - LIABILITY, WHETHER IN AN ACTION OF CONTRACT, TORT OR OTHERWISE, ARISING FROM,
  - OUT OF OR IN CONNECTION WITH THE SOFTWARE OR THE USE OR OTHER DEALINGS IN THE
  - SOFTWARE.
  -->


<svg data-big="true" xmlns="http://www.w3.org/2000/svg" version="1.1" width="16px" height="16px" fill="#FFC107"
     viewBox="0 0 24 24">
  <path
    d="M2.81,14.12L5.64,11.29L8.17,10.79C11.39,6.41 17.55,4.22 19.78,4.22C19.78,6.45 17.59,12.61 13.21,15.83L12.71,18.36L9.88,21.19L9.17,17.66C7.76,17.66 7.76,17.66 7.05,16.95C6.34,16.24 6.34,16.24 6.34,14.83L2.81,14.12M5.64,16.95L7.05,18.36L4.39,21.03H2.97V19.61L5.64,16.95M4.22,15.54L5.46,15.71L3,18.16V16.74L4.22,15.54M8.29,18.54L8.46,19.78L7.26,21H5.84L8.29,18.54M13,9.5A1.5,1.5 0 0,0 11.5,11A1.5,1.5 0 0,0 13,12.5A1.5,1.5 0 0,0 14.5,11A1.5,1.5 0 0,0 13,9.5Z"/>
</svg>
